deployments/warp_routes/FORM/logo.svg

<svg width="256" height="256" viewBox="0 0 256 256" fill="none" xmlns="http://www.w3.org/2000/svg">
<rect width="256" height="256" rx="128" fill="#1E1E1F"/>
<g clip-path="url(#clip0_1007_2)">
<path d="M89.6263 138.925C89.5412 138.924 89.4562 138.928 89.3716 138.936C88.6061 139.008 88.3917 139.266 88.3917 140.064C88.3917 154.261 88.395 168.463 88.4017 182.669C88.4017 184.412 87.1239 186.021 85.0749 186C79.804 185.942 74.5316 185.958 69.2607 185.991C67.1843 186.004 66.0101 184.79 66.0087 182.776C66.0029 168.359 66.0072 153.942 66.0216 139.525C66.0216 137.493 66.9052 136.517 69.0607 136.498C73.3934 136.461 77.7261 136.498 82.0588 136.479C82.9653 136.495 83.8495 136.199 84.5626 135.643C85.4173 134.974 85.6289 134.032 85.6389 133.071C85.6763 129.603 85.6763 126.136 85.6389 122.67C85.6437 122.236 85.5605 121.806 85.3943 121.405C85.2281 121.004 84.9823 120.64 84.6716 120.336C84.3608 120.031 83.9915 119.792 83.5857 119.632C83.1798 119.472 82.7457 119.395 82.3092 119.405C78.3391 119.454 74.3661 119.428 70.3946 119.414C69.6317 119.422 68.8694 119.368 68.1153 119.252C67.2246 119.109 66.5325 118.622 66.2922 117.692C66.1612 117.173 66.0173 116.638 66.0159 116.111C65.9986 109.416 65.9986 102.721 66.0159 96.0266C66.0159 95.089 66.1022 94.1028 66.9469 93.4725C67.3239 93.1867 67.8103 92.9322 68.2678 92.9008C69.8421 92.7893 71.4235 92.7579 73.0035 92.7393C75.0971 92.715 77.1908 92.7493 79.2859 92.7264C80.4371 92.7136 81.5796 92.6693 82.7222 92.5835C83.6273 92.512 84.3223 91.9603 85.013 91.4301C85.8548 90.784 86.6908 90.1323 87.5398 89.4963C88.4766 88.7945 88.6766 87.7969 88.678 86.7278C88.6838 81.994 88.6838 77.2602 88.678 72.5265C88.678 71.1987 89.6651 70.2182 91.0206 70.2168C95.6901 70.2168 100.359 70.2168 105.029 70.2168C132.657 70.171 162.276 70.0538 189.927 70.0095C190.002 70.0093 190.075 70.0237 190.144 70.0518C190.212 70.0798 190.275 70.1211 190.327 70.1731C190.38 70.2252 190.421 70.287 190.45 70.3551C190.478 70.4231 190.493 70.4961 190.493 70.5698V71.9733C190.492 72.1218 190.433 72.2641 190.327 72.3691C190.222 72.4741 190.078 72.5332 189.929 72.5336H174.473C173.892 72.529 173.316 72.6405 172.779 72.8615C172.242 73.0825 171.755 73.4084 171.348 73.82C166.707 78.4322 162.073 83.0588 157.401 87.6468C156.013 89.0117 154.523 90.2766 153.047 91.5501C152.061 92.4006 150.838 92.7207 149.566 92.7221C134.737 92.7364 119.909 92.7417 105.082 92.7379C100.711 92.7379 96.339 92.8036 91.9675 92.8894C90.7587 92.9137 89.5212 93.068 88.878 94.3372C88.7039 94.6802 88.6363 95.079 88.5413 95.4563C88.5247 95.5988 88.5247 95.7427 88.5413 95.8851C88.4933 101.016 88.4454 106.147 88.3974 111.278C88.3816 112.708 87.016 113.96 85.4763 113.961C80.686 113.961 75.8958 113.961 71.1055 113.97C70.6805 113.974 70.2571 114.022 69.8421 114.113C69.0463 114.283 68.5873 114.774 68.6118 115.368C68.6388 115.745 68.8018 116.1 69.0708 116.367C69.3399 116.635 69.6969 116.797 70.0766 116.824C70.291 116.844 70.5083 116.824 70.727 116.824L179.567 116.801C181.161 116.781 182.606 118.243 182.589 119.771C182.533 125.222 182.567 130.674 182.567 136.125C182.567 137.784 181.416 138.916 179.745 138.916L89.6263 138.925Z" fill="white"/>
</g>
<defs>
<clipPath id="clip0_1007_2">
<rect width="124.5" height="116" fill="white" transform="translate(66 70)"/>
</clipPath>
</defs>
</svg>

<svg xmlns="http://www.w3.org/2000/svg" width="256" height="256" fill="none" viewBox="0 0 256 256"><rect width="256" height="256" fill="#1E1E1F" rx="128"/><g clip-path="url(#a)"><path fill="#fff" d="M89.626 138.925a2 2 0 0 0-.254.011c-.766.072-.98.33-.98 1.128q0 21.296.01 42.605c0 1.743-1.278 3.352-3.327 3.331-5.271-.058-10.543-.042-15.814-.009-2.077.013-3.25-1.201-3.252-3.215q-.01-21.625.013-43.251c0-2.032.883-3.008 3.039-3.027 4.332-.037 8.665 0 12.998-.019a3.96 3.96 0 0 0 2.504-.836c.854-.669 1.066-1.611 1.076-2.572q.056-5.202 0-10.401a3.2 3.2 0 0 0-.967-2.334 3.25 3.25 0 0 0-2.363-.931c-3.97.049-7.943.023-11.914.009a14 14 0 0 1-2.28-.162c-.89-.143-1.582-.63-1.823-1.56-.13-.519-.275-1.054-.276-1.581q-.025-10.043 0-20.084c0-.938.086-1.924.93-2.555.378-.285.864-.54 1.322-.571 1.574-.112 3.156-.143 4.736-.162 2.093-.024 4.187.01 6.282-.013a54 54 0 0 0 3.436-.142c.905-.072 1.6-.624 2.291-1.154.842-.646 1.678-1.298 2.527-1.934.937-.701 1.137-1.7 1.138-2.768q.009-7.101 0-14.201c0-1.328.987-2.309 2.343-2.31h14.008c27.628-.046 57.247-.163 84.898-.207a.57.57 0 0 1 .523.345.6.6 0 0 1 .043.215v1.403a.56.56 0 0 1-.564.56h-15.456a4.36 4.36 0 0 0-3.125 1.287c-4.641 4.612-9.275 9.239-13.947 13.827-1.388 1.365-2.878 2.63-4.354 3.903-.986.85-2.209 1.17-3.481 1.172q-22.243.021-44.484.016c-4.371 0-8.743.066-13.114.151-1.21.025-2.447.179-3.09 1.448-.174.343-.242.742-.337 1.12a2 2 0 0 0 0 .428l-.144 15.393c-.015 1.43-1.381 2.682-2.92 2.683-4.791 0-9.581 0-14.371.009a6 6 0 0 0-1.264.143c-.796.17-1.255.661-1.23 1.255.027.377.19.732.459.999.269.268.626.43 1.006.457.214.02.431 0 .65 0l108.84-.023c1.594-.02 3.039 1.442 3.022 2.97-.056 5.451-.022 10.903-.022 16.354 0 1.659-1.151 2.791-2.822 2.791z"/></g><defs><clipPath id="a"><path fill="#fff" d="M66 70h124.5v116H66z"/></clipPath></defs></svg>
